apps/sim/public/logo/b&w/b&w.svg

<svg fill="none" height="616" viewBox="0 0 616 616" width="616" xmlns="http://www.w3.org/2000/svg" xmlns:xlink="http://www.w3.org/1999/xlink"><clipPath id="a"><path d="m0 0h616v616h-616z"/></clipPath><g clip-path="url(#a)"><path d="m616 0h-616v616h616z" fill="#fff"/><g fill="#000"><path d="m83 365.567h30c0 8.238 3 14.806 9 19.705 6 4.676 14.111 7.013 24.333 7.013 11.111 0 19.667-2.114 25.667-6.346 5.999-4.452 9-10.353 9-17.7 0-5.344-1.667-9.797-5-13.359-3.111-3.562-8.889-6.458-17.333-8.684l-28.667-6.679c-14.445-3.563-25.222-9.018-32.3335-16.366-6.889-7.347-10.3331-17.032-10.3331-29.055 0-10.02 2.5556-18.704 7.6662-26.051 5.3334-7.348 12.5554-13.025 21.6664-17.033 9.334-4.008 20.001-6.012 32-6.012 12.001 0 22.334 2.116 31.001 6.346 8.888 4.23 15.777 10.131 20.666 17.701 5.111 7.57 7.778 16.587 8 27.052h-30c-.222-8.461-3-15.029-8.334-19.705-5.333-4.675-12.777-7.013-22.332-7.013-9.778 0-17.334 2.115-22.667 6.345-5.334 4.231-8 10.02-8 17.367 0 10.91 8 18.369 24 22.377l28.667 7.013c13.778 3.117 24.111 8.239 31 15.364 6.888 6.902 10.333 16.365 10.333 28.388 0 10.242-2.778 19.259-8.334 27.052-5.555 7.57-13.222 13.471-22.999 17.702-9.556 4.007-20.889 6.011-34 6.011-19.112 0-34.334-4.675-45.6673-14.027-11.3329-9.352-16.9997-21.82-16.9997-37.406z"/><path d="m232.291 413v-162.918c12.393 4.532 17.857 4.532 31.08 0v162.918zm15.209-173.687c-5.51 0-10.36-2-14.548-5.997-3.968-4.221-5.952-9.107-5.952-14.66 0-5.774 1.984-10.661 5.952-14.659 4.188-3.998 9.038-5.997 14.548-5.997 5.731 0 10.58 1.999 14.549 5.997 3.967 3.998 5.951 8.885 5.951 14.659 0 5.553-1.984 10.439-5.951 14.66-3.969 3.997-8.818 5.997-14.549 5.997z"/><path d="m319.333 413h-31.333v-163.324h28v27.557c3.333-9.129 9.778-16.869 18.667-22.881 9.111-6.235 20.111-9.352 33-9.352 14.444 0 26.445 3.897 36 11.69 9.555 7.794 15.777 18.147 18.667 31.062h-5.667c2.222-12.915 8.333-23.268 18.333-31.062 10-7.793 22.334-11.69 37-11.69 18.666 0 33.334 5.455 44 16.366 10.667 10.91 16 25.829 16 44.755v106.879h-30.667v-99.196c0-12.915-3.333-22.823-10-29.726-6.444-7.126-15.222-10.688-26.333-10.688-7.777 0-14.667 1.781-20.666 5.344-5.778 3.34-10.333 8.238-13.667 14.696-3.334 6.457-5 14.027-5 22.711v96.859h-31v-99.531c0-12.914-3.222-22.711-9.667-29.391-6.444-6.903-15.222-10.354-26.333-10.354-7.778 0-14.667 1.781-20.667 5.344-5.778 3.34-10.333 8.239-13.667 14.695-3.333 6.235-5 13.694-5 22.378z"/></g></g></svg>

<svg width="616" height="616" viewBox="0 0 616 616" fill="none" xmlns="http://www.w3.org/2000/svg">
<g clip-path="url(#clip0_1184_339)">
<path d="M616 0H0V616H616V0Z" fill="white"/>
<path d="M83 365.567H113C113 373.805 116 380.373 122 385.272C128 389.948 136.111 392.285 146.333 392.285C157.444 392.285 166 390.171 172 385.939C177.999 381.487 181 375.586 181 368.239C181 362.895 179.333 358.442 176 354.88C172.889 351.318 167.111 348.422 158.667 346.196L130 339.517C115.555 335.954 104.778 330.499 97.6665 323.151C90.7775 315.804 87.3334 306.119 87.3334 294.096C87.3334 284.076 89.889 275.392 94.9996 268.045C100.333 260.697 107.555 255.02 116.666 251.012C126 247.004 136.667 245 148.666 245C160.667 245 171 247.116 179.667 251.346C188.555 255.576 195.444 261.477 200.333 269.047C205.444 276.617 208.111 285.634 208.333 296.099H178.333C178.111 287.638 175.333 281.07 169.999 276.394C164.666 271.719 157.222 269.381 147.667 269.381C137.889 269.381 130.333 271.496 125 275.726C119.666 279.957 117 285.746 117 293.093C117 304.003 125 311.462 141 315.47L169.667 322.483C183.445 325.6 193.778 330.722 200.667 337.847C207.555 344.749 211 354.212 211 366.235C211 376.477 208.222 385.494 202.666 393.287C197.111 400.857 189.444 406.758 179.667 410.989C170.111 414.996 158.778 417 145.667 417C126.555 417 111.333 412.325 99.9997 402.973C88.6668 393.621 83 381.153 83 365.567Z" fill="black"/>
<path d="M232.291 413V250.082C244.684 254.614 250.148 254.614 263.371 250.082V413H232.291ZM247.5 239.313C241.99 239.313 237.14 237.313 232.952 233.316C228.984 229.095 227 224.209 227 218.656C227 212.882 228.984 207.995 232.952 203.997C237.14 199.999 241.99 198 247.5 198C253.231 198 258.08 199.999 262.049 203.997C266.016 207.995 268 212.882 268 218.656C268 224.209 266.016 229.095 262.049 233.316C258.08 237.313 253.231 239.313 247.5 239.313Z" fill="black"/>
<path d="M319.333 413H288V249.676H316V277.233C319.333 268.104 325.778 260.364 334.667 254.352C343.778 248.117 354.778 245 367.667 245C382.111 245 394.112 248.897 403.667 256.69C413.222 264.484 419.444 274.837 422.334 287.752H416.667C418.889 274.837 425 264.484 435 256.69C445 248.897 457.334 245 472 245C490.666 245 505.334 250.455 516 261.366C526.667 272.276 532 287.195 532 306.121V413H501.333V313.804C501.333 300.889 498 290.981 491.333 284.078C484.889 276.952 476.111 273.39 465 273.39C457.223 273.39 450.333 275.171 444.334 278.734C438.556 282.074 434.001 286.972 430.667 293.43C427.333 299.887 425.667 307.457 425.667 316.141V413H394.667V313.469C394.667 300.555 391.445 290.758 385 284.078C378.556 277.175 369.778 273.724 358.667 273.724C350.889 273.724 344 275.505 338 279.068C332.222 282.408 327.667 287.307 324.333 293.763C321 299.998 319.333 307.457 319.333 316.141V413Z" fill="black"/>
</g>
<defs>
<clipPath id="clip0_1184_339">
<rect width="616" height="616" fill="white"/>
</clipPath>
</defs>
</svg>
